X: 2269
T: the PIG TOWN
Q: "Reel."
R: Reel.
%R: reel
B: James Kerr "Merry Melodies" v.2 p.29 #269
Z: 2016 John Chambers <jc:trillian.mit.edu>
M: C
L: 1/8
K: G
|:\
vG2ge d2ed | B2ge (dB)AB |\
G2ge d2ed |[1 BGAG EFGA :|[2 BGAF G2z2 |]\
vB2e2 efge |
fedf edBA |\
B2e2 efge | fgaf g2(ed) |\
B2e2 efge | fedf edBA |\
B2e2 efge | fgaf g2z2 |]
